img/threads.svg

<svg xmlns="http://www.w3.org/2000/svg" width="24" height="24" fill="none" viewBox="0 0 24 24">
  <path fill="#000" d="M18.067 11.123a8.547 8.547 0 0 0-.315-.142c-.185-3.414-2.05-5.368-5.182-5.388h-.042c-1.873 0-3.431.8-4.39 2.255L9.86 9.029c.716-1.087 1.84-1.318 2.669-1.318h.028c1.031.006 1.81.306 2.313.89.367.426.612 1.015.733 1.757a13.176 13.176 0 0 0-2.96-.143c-2.977.172-4.892 1.909-4.763 4.322.065 1.223.675 2.277 1.717 2.964.88.582 2.015.866 3.194.802 1.558-.085 2.78-.68 3.632-1.766.647-.825 1.056-1.894 1.237-3.241.742.448 1.292 1.037 1.596 1.745.516 1.205.546 3.184-1.068 4.797-1.415 1.414-3.116 2.025-5.686 2.044-2.851-.02-5.008-.935-6.41-2.717-1.313-1.67-1.991-4.08-2.016-7.165.025-3.085.703-5.496 2.016-7.165 1.402-1.782 3.558-2.696 6.41-2.717 2.871.02 5.065.94 6.521 2.73.714.879 1.252 1.983 1.607 3.27l2.018-.538c-.43-1.585-1.107-2.95-2.027-4.083C18.755 1.2 16.025.024 12.509 0h-.014c-3.51.024-6.208 1.205-8.021 3.51C2.86 5.56 2.028 8.414 2 11.992v.016c.028 3.578.86 6.431 2.474 8.482 1.813 2.305 4.511 3.486 8.02 3.51h.015c3.12-.022 5.319-.838 7.13-2.649 2.371-2.368 2.3-5.336 1.518-7.158-.56-1.307-1.629-2.368-3.09-3.07Zm-5.387 5.065c-1.305.074-2.66-.512-2.728-1.766-.05-.93.662-1.969 2.808-2.092.246-.015.487-.021.724-.021.78 0 1.508.075 2.171.22-.247 3.088-1.697 3.59-2.975 3.66Z"/>
</svg>

<svg width="24" height="24" viewBox="0 0 24 24" fill="none" xmlns="http://www.w3.org/2000/svg">
<path d="M18.067 11.123C17.963 11.0735 17.8579 11.0262 17.752 10.981C17.567 7.567 15.702 5.613 12.57 5.593H12.528C10.655 5.593 9.097 6.393 8.138 7.848L9.86 9.029C10.576 7.942 11.7 7.711 12.529 7.711H12.557C13.588 7.717 14.367 8.017 14.87 8.601C15.237 9.027 15.482 9.616 15.603 10.358C14.6249 10.1992 13.6319 10.1512 12.643 10.215C9.666 10.387 7.751 12.124 7.88 14.537C7.945 15.76 8.555 16.814 9.597 17.501C10.477 18.083 11.612 18.367 12.791 18.303C14.349 18.218 15.571 17.623 16.423 16.537C17.07 15.712 17.479 14.643 17.66 13.296C18.402 13.744 18.952 14.333 19.256 15.041C19.772 16.246 19.802 18.225 18.188 19.838C16.773 21.252 15.072 21.863 12.502 21.882C9.651 21.862 7.494 20.947 6.092 19.165C4.779 17.495 4.101 15.085 4.076 12C4.101 8.915 4.779 6.504 6.092 4.835C7.494 3.053 9.65 2.139 12.502 2.118C15.373 2.138 17.567 3.058 19.023 4.848C19.737 5.727 20.275 6.831 20.63 8.118L22.648 7.58C22.218 5.995 21.541 4.63 20.621 3.497C18.755 1.2 16.025 0.024 12.509 0H12.495C8.985 0.024 6.287 1.205 4.474 3.51C2.86 5.56 2.028 8.414 2 11.992V12.008C2.028 15.586 2.86 18.439 4.474 20.49C6.287 22.795 8.985 23.976 12.494 24H12.509C15.629 23.978 17.828 23.162 19.639 21.351C22.01 18.983 21.939 16.015 21.157 14.193C20.597 12.886 19.528 11.825 18.067 11.123ZM12.68 16.188C11.375 16.262 10.02 15.676 9.952 14.422C9.902 13.492 10.614 12.453 12.76 12.33C13.006 12.315 13.247 12.309 13.484 12.309C14.264 12.309 14.992 12.384 15.655 12.529C15.408 15.617 13.958 16.118 12.68 16.188Z" fill="black"/>
</svg>
